src/epub/images/titlepage.svg

<?xml version="1.0" encoding="utf-8"?>
<svg xmlns="http://www.w3.org/2000/svg" xmlns:svg="http://www.w3.org/2000/svg" version="1.1" viewBox="0 0 1400 440">
	<title>The titlepage for the Standard Ebooks edition of The Call of the Wild, by Jack London</title>
	<g>
		<path d="m 456.54897,68.245613 18.33918,0 0,61.754387 17.59065,0 0,-61.754387 18.33918,0 0,-15.438597 -54.26901,0 0,15.438597 z"/>
		<path d="m 539.74342,99.029239 24.88889,0 0,30.970761 17.59064,0 0,-77.192984 -17.59064,0 0,30.783626 -24.88889,0 0,-30.783626 -17.59065,0 0,77.192984 17.59065,0 0,-30.970761 z"/>
		<path d="m 642.58845,52.807016 -44.16374,0 0,77.192984 44.16374,0 0,-15.4386 -26.5731,0 0,-15.532161 25.45029,0 0,-15.438597 -25.45029,0 0,-15.345029 26.5731,0 0,-15.438597 z"/>
		<path d="m 726.43787,114.09357 c -17.68421,0 -25.4503,-12.35088 -25.4503,-22.736846 0,-10.292397 7.76609,-22.643275 25.4503,-22.643275 8.98245,0 15.15789,4.77193 15.15789,4.77193 l 7.48538,-14.97076 c 0,0 -8.60819,-7.111112 -25.35672,-7.111112 -21.89474,0 -41.82457,17.964913 -41.82457,40.140352 0,22.081871 20.0234,39.859651 41.82457,39.859651 16.74853,0 25.35672,-7.11111 25.35672,-7.11111 l -7.48538,-14.97076 c 0,0 -6.17544,4.77193 -15.15789,4.77193 z"/>
		<path d="m 800.10746,52.807016 -16.2807,0 L 752.66886,130 l 18.90059,0 5.7076,-15.4386 29.38012,0 5.7076,15.4386 18.90059,0 -31.1579,-77.192984 z m 0.5614,46.31579 -17.4035,0 8.60818,-22.45614 0.18714,0 8.60818,22.45614 z"/>
		<path d="m 856.77559,52.807016 -17.59064,0 0,77.192984 44.16374,0 0,-15.4386 -26.5731,0 0,-61.754384 z"/>
		<path d="m 914.58992,52.807016 -17.59064,0 0,77.192984 44.16374,0 0,-15.4386 -26.5731,0 0,-61.754384 z"/>
	</g>
	<g>
		<path d="m 371.87061,191.35672 c 0,22.54971 16.09357,40.04679 38.92398,40.04679 22.17543,0 38.83041,-17.49708 38.83041,-40.04679 0,-22.5497 -17.40351,-39.95321 -38.83041,-39.95321 -21.23977,0 -38.92398,17.40351 -38.92398,39.95321 z m 18.99415,0 c 0,-11.50877 6.36257,-23.01754 19.92983,-23.01754 13.66081,0 19.83625,11.50877 19.83625,23.01754 0,11.50878 -5.80117,23.01755 -19.83625,23.01755 -14.40936,0 -19.92983,-11.50877 -19.92983,-23.01755 z"/>
		<path d="m 507.01827,152.80702 -44.63158,0 0,77.19298 17.59064,0 0,-30.97076 24.98246,0 0,-15.4386 -24.98246,0 0,-15.34503 27.04094,0 0,-15.43859 z"/>
		<path d="m 541.53436,168.24561 18.33918,0 0,61.75439 17.59065,0 0,-61.75439 18.33918,0 0,-15.43859 -54.26901,0 0,15.43859 z"/>
		<path d="m 624.7288,199.02924 24.88889,0 0,30.97076 17.59064,0 0,-77.19298 -17.59064,0 0,30.78362 -24.88889,0 0,-30.78362 -17.59065,0 0,77.19298 17.59065,0 0,-30.97076 z"/>
		<path d="m 727.57382,152.80702 -44.16374,0 0,77.19298 44.16374,0 0,-15.4386 -26.5731,0 0,-15.53216 25.4503,0 0,-15.4386 -25.4503,0 0,-15.34503 26.5731,0 0,-15.43859 z"/>
		<path d="m 824.45834,230 19.46199,0 21.98831,-77.19298 -19.46199,0 -13.19299,52.95906 -0.46783,0 -14.03509,-52.95906 -13.28655,0 -14.03509,52.95906 -0.46783,0 -13.19299,-52.95906 -19.55555,0 21.9883,77.19298 19.55556,0 12.35088,-43.32164 L 824.45834,230 Z"/>
		<path d="m 892.71856,152.80702 -17.59064,0 0,77.19298 17.59064,0 0,-77.19298 z"/>
		<path d="m 926.59286,152.80702 -17.59065,0 0,77.19298 44.16375,0 0,-15.4386 -26.5731,0 0,-61.75438 z"/>
		<path d="m 966.81654,152.80702 0,77.19298 22.36258,0 c 21.23978,0 38.92398,-16.09357 38.92398,-38.64328 0,-22.45614 -17.7778,-38.5497 -38.92398,-38.5497 l -22.36258,0 z m 17.59065,61.47368 0,-45.75439 2.71345,0 c 13.09946,0 21.98826,10.0117 21.98826,22.92398 -0.093,12.91228 -8.9824,22.83041 -21.98826,22.83041 l -2.71345,0 z"/>
	</g>
	<g>
		<path d="m 432.67928,332.10526 -13.19298,0 0,38.17544 c 0,5.82456 -2.8772,8.14035 -6.66667,8.14035 -3.36842,0 -7.50877,-3.92982 -7.50877,-3.92982 l -4.21053,11.01754 c 0,0 5.26316,5.54386 13.54386,5.54386 11.57895,0 18.03509,-6.03509 18.03509,-17.40351 l 0,-41.54386 z"/>
		<path d="m 474.78454,332.10526 -12.21052,0 L 439.2056,390 l 14.17543,0 4.28071,-11.57895 22.03508,0 4.2807,11.57895 14.17544,0 -23.36842,-57.89474 z m 0.42105,34.73685 -13.05263,0 L 468.6091,350 l 0.14035,0 6.45614,16.84211 z"/>
		<path d="m 533.95669,378.07018 c -13.26316,0 -19.08772,-9.26316 -19.08772,-17.05264 0,-7.71929 5.82456,-16.98245 19.08772,-16.98245 6.73684,0 11.36842,3.57895 11.36842,3.57895 l 5.61404,-11.22807 c 0,0 -6.45614,-5.33334 -19.01755,-5.33334 -16.42105,0 -31.36842,13.47369 -31.36842,30.10527 0,16.5614 15.01754,29.89473 31.36842,29.89473 12.56141,0 19.01755,-5.33333 19.01755,-5.33333 l -5.61404,-11.22807 c 0,0 -4.63158,3.57895 -11.36842,3.57895 z"/>
		<path d="m 613.75713,390 -26.94737,-30.45614 23.29824,-27.4386 -16,0 -19.85964,23.64913 0,-23.64913 -13.19299,0 0,57.89474 13.19299,0 0,-24.5614 21.33333,24.5614 18.17544,0 z"/>
		<path d="m 658.6727,332.10526 -13.19298,0 0,57.89474 33.12281,0 0,-11.57895 -19.92983,0 0,-46.31579 z"/>
		<path d="m 687.49396,361.01754 c 0,16.91228 12.07018,30.03509 29.19298,30.03509 16.63158,0 29.12281,-13.12281 29.12281,-30.03509 0,-16.91228 -13.05263,-29.96491 -29.12281,-29.96491 -15.92982,0 -29.19298,13.05263 -29.19298,29.96491 z m 14.24562,0 c 0,-8.63157 4.77193,-17.26315 14.94736,-17.26315 10.24562,0 14.8772,8.63158 14.8772,17.26315 0,8.63158 -4.35088,17.26316 -14.8772,17.26316 -10.80701,0 -14.94736,-8.63158 -14.94736,-17.26316 z"/>
		<path d="m 769.82402,354.07018 0.14035,0 23.01755,35.92982 13.19298,0 0,-57.89474 -13.19298,0 0,35.92983 -0.14035,0 -23.01755,-35.92983 -13.19298,0 0,57.89474 13.19298,0 0,-35.92982 z"/>
		<path d="m 819.608,332.10526 0,57.89474 16.77193,0 c 15.92982,0 29.19298,-12.07018 29.19298,-28.98246 0,-16.8421 -13.33333,-28.91228 -29.19298,-28.91228 l -16.77193,0 z m 13.19298,46.10527 0,-34.31579 2.03509,0 c 9.82456,0 16.49123,7.50877 16.49123,17.19298 -0.0702,9.68421 -6.73684,17.12281 -16.49123,17.12281 l -2.03509,0 z"/>
		<path d="m 873.82071,361.01754 c 0,16.91228 12.07018,30.03509 29.19299,30.03509 16.63157,0 29.1228,-13.12281 29.1228,-30.03509 0,-16.91228 -13.05263,-29.96491 -29.1228,-29.96491 -15.92983,0 -29.19299,13.05263 -29.19299,29.96491 z m 14.24562,0 c 0,-8.63157 4.77193,-17.26315 14.94737,-17.26315 10.24561,0 14.87719,8.63158 14.87719,17.26315 0,8.63158 -4.35088,17.26316 -14.87719,17.26316 -10.80702,0 -14.94737,-8.63158 -14.94737,-17.26316 z"/>
		<path d="m 956.15078,354.07018 0.14035,0 23.01754,35.92982 13.19298,0 0,-57.89474 -13.19298,0 0,35.92983 -0.14035,0 -23.01754,-35.92983 -13.19299,0 0,57.89474 13.19299,0 0,-35.92982 z"/>
	</g>
</svg>

<?xml version="1.0" encoding="utf-8"?>
<svg xmlns="http://www.w3.org/2000/svg" xmlns:svg="http://www.w3.org/2000/svg" version="1.1" viewBox="0 0 1400 440">
	<title>The titlepage for the Standard Ebooks edition of The Call of the Wild, by Jack London</title>
	<g aria-label="THE CALL">
		<path d="m 456.54897,68.245613 h 18.33918 V 130 H 492.4788 V 68.245613 h 18.33918 V 52.807016 h -54.26901 z"/>
		<path d="m 539.74342,99.029239 h 24.88889 V 130 h 17.59064 V 52.807016 H 564.63231 V 83.590642 H 539.74342 V 52.807016 H 522.15277 V 130 h 17.59065 z"/>
		<path d="M 642.58845,52.807016 H 598.42471 V 130 h 44.16374 v -15.4386 h -26.5731 V 99.029239 h 25.45029 V 83.590642 H 616.01535 V 68.245613 h 26.5731 z"/>
		<path d="m 726.43787,114.09357 c -17.68421,0 -25.4503,-12.35088 -25.4503,-22.736846 0,-10.292397 7.76609,-22.643275 25.4503,-22.643275 8.98245,0 15.15789,4.77193 15.15789,4.77193 l 7.48538,-14.97076 c 0,0 -8.60819,-7.111112 -25.35672,-7.111112 -21.89474,0 -41.82457,17.964913 -41.82457,40.140352 0,22.081871 20.0234,39.859651 41.82457,39.859651 16.74853,0 25.35672,-7.11111 25.35672,-7.11111 l -7.48538,-14.97076 c 0,0 -6.17544,4.77193 -15.15789,4.77193 z"/>
		<path d="m 800.10746,52.807016 h -16.2807 L 752.66886,130 h 18.90059 l 5.7076,-15.4386 h 29.38012 L 812.36477,130 h 18.90059 z m 0.5614,46.31579 h -17.4035 l 8.60818,-22.45614 h 0.18714 z"/>
		<path d="M 856.77559,52.807016 H 839.18495 V 130 h 44.16374 v -15.4386 h -26.5731 z"/>
		<path d="M 914.58992,52.807016 H 896.99928 V 130 h 44.16374 v -15.4386 h -26.5731 z"/>
	</g>
	<g aria-label="OF THE WILD">
		<path d="m 371.87061,191.35672 c 0,22.54971 16.09357,40.04679 38.92398,40.04679 22.17543,0 38.83041,-17.49708 38.83041,-40.04679 0,-22.5497 -17.40351,-39.95321 -38.83041,-39.95321 -21.23977,0 -38.92398,17.40351 -38.92398,39.95321 z m 18.99415,0 c 0,-11.50877 6.36257,-23.01754 19.92983,-23.01754 13.66081,0 19.83625,11.50877 19.83625,23.01754 0,11.50878 -5.80117,23.01755 -19.83625,23.01755 -14.40936,0 -19.92983,-11.50877 -19.92983,-23.01755 z"/>
		<path d="M 507.01827,152.80702 H 462.38669 V 230 h 17.59064 v -30.97076 h 24.98246 v -15.4386 h -24.98246 v -15.34503 h 27.04094 z"/>
		<path d="m 541.53436,168.24561 h 18.33918 V 230 h 17.59065 v -61.75439 h 18.33918 v -15.43859 h -54.26901 z"/>
		<path d="m 624.7288,199.02924 h 24.88889 V 230 h 17.59064 v -77.19298 h -17.59064 v 30.78362 H 624.7288 V 152.80702 H 607.13815 V 230 h 17.59065 z"/>
		<path d="M 727.57382,152.80702 H 683.41008 V 230 h 44.16374 v -15.4386 h -26.5731 v -15.53216 h 25.4503 v -15.4386 h -25.4503 v -15.34503 h 26.5731 z"/>
		<path d="m 824.45834,230 h 19.46199 l 21.98831,-77.19298 h -19.46199 l -13.19299,52.95906 h -0.46783 l -14.03509,-52.95906 h -13.28655 l -14.03509,52.95906 h -0.46783 L 777.76828,152.80702 H 758.21273 L 780.20103,230 h 19.55556 l 12.35088,-43.32164 z"/>
		<path d="M 892.71856,152.80702 H 875.12792 V 230 h 17.59064 z"/>
		<path d="M 926.59286,152.80702 H 909.00221 V 230 h 44.16375 v -15.4386 h -26.5731 z"/>
		<path d="M 966.81654,152.80702 V 230 h 22.36258 c 21.23978,0 38.92398,-16.09357 38.92398,-38.64328 0,-22.45614 -17.7778,-38.5497 -38.92398,-38.5497 z m 17.59065,61.47368 v -45.75439 h 2.71345 c 13.09946,0 21.98826,10.0117 21.98826,22.92398 -0.093,12.91228 -8.9824,22.83041 -21.98826,22.83041 z"/>
	</g>
	<g aria-label="JACK LONDON">
		<path d="M 432.67928,332.10526 H 419.4863 v 38.17544 c 0,5.82456 -2.8772,8.14035 -6.66667,8.14035 -3.36842,0 -7.50877,-3.92982 -7.50877,-3.92982 l -4.21053,11.01754 c 0,0 5.26316,5.54386 13.54386,5.54386 11.57895,0 18.03509,-6.03509 18.03509,-17.40351 z"/>
		<path d="M 474.78454,332.10526 H 462.57402 L 439.2056,390 h 14.17543 l 4.28071,-11.57895 h 22.03508 L 483.97752,390 h 14.17544 z m 0.42105,34.73685 H 462.15296 L 468.6091,350 h 0.14035 z"/>
		<path d="m 533.95669,378.07018 c -13.26316,0 -19.08772,-9.26316 -19.08772,-17.05264 0,-7.71929 5.82456,-16.98245 19.08772,-16.98245 6.73684,0 11.36842,3.57895 11.36842,3.57895 l 5.61404,-11.22807 c 0,0 -6.45614,-5.33334 -19.01755,-5.33334 -16.42105,0 -31.36842,13.47369 -31.36842,30.10527 0,16.5614 15.01754,29.89473 31.36842,29.89473 12.56141,0 19.01755,-5.33333 19.01755,-5.33333 l -5.61404,-11.22807 c 0,0 -4.63158,3.57895 -11.36842,3.57895 z"/>
		<path d="m 613.75713,390 -26.94737,-30.45614 23.29824,-27.4386 h -16 l -19.85964,23.64913 V 332.10526 H 561.05537 V 390 h 13.19299 V 365.4386 L 595.58169,390 Z"/>
		<path d="M 658.6727,332.10526 H 645.47972 V 390 h 33.12281 V 378.42105 H 658.6727 Z"/>
		<path d="m 687.49396,361.01754 c 0,16.91228 12.07018,30.03509 29.19298,30.03509 16.63158,0 29.12281,-13.12281 29.12281,-30.03509 0,-16.91228 -13.05263,-29.96491 -29.12281,-29.96491 -15.92982,0 -29.19298,13.05263 -29.19298,29.96491 z m 14.24562,0 c 0,-8.63157 4.77193,-17.26315 14.94736,-17.26315 10.24562,0 14.8772,8.63158 14.8772,17.26315 0,8.63158 -4.35088,17.26316 -14.8772,17.26316 -10.80701,0 -14.94736,-8.63158 -14.94736,-17.26316 z"/>
		<path d="m 769.82402,354.07018 h 0.14035 L 792.98192,390 h 13.19298 v -57.89474 h -13.19298 v 35.92983 h -0.14035 L 769.82402,332.10526 H 756.63104 V 390 h 13.19298 z"/>
		<path d="M 819.608,332.10526 V 390 h 16.77193 c 15.92982,0 29.19298,-12.07018 29.19298,-28.98246 0,-16.8421 -13.33333,-28.91228 -29.19298,-28.91228 z m 13.19298,46.10527 v -34.31579 h 2.03509 c 9.82456,0 16.49123,7.50877 16.49123,17.19298 -0.0702,9.68421 -6.73684,17.12281 -16.49123,17.12281 z"/>
		<path d="m 873.82071,361.01754 c 0,16.91228 12.07018,30.03509 29.19299,30.03509 16.63157,0 29.1228,-13.12281 29.1228,-30.03509 0,-16.91228 -13.05263,-29.96491 -29.1228,-29.96491 -15.92983,0 -29.19299,13.05263 -29.19299,29.96491 z m 14.24562,0 c 0,-8.63157 4.77193,-17.26315 14.94737,-17.26315 10.24561,0 14.87719,8.63158 14.87719,17.26315 0,8.63158 -4.35088,17.26316 -14.87719,17.26316 -10.80702,0 -14.94737,-8.63158 -14.94737,-17.26316 z"/>
		<path d="m 956.15078,354.07018 h 0.14035 L 979.30867,390 h 13.19298 v -57.89474 h -13.19298 v 35.92983 h -0.14035 L 956.15078,332.10526 H 942.95779 V 390 h 13.19299 z"/>
	</g>
</svg>
